X: 0
T:Gallants Come Away
M:4/4
L:1/4
Q:120
K:GMixolydian
zGB3/2c/|ded2|zBB3/2c/|dBc2|zBA3/2G/|F3/2E/D2|\
zDG3/2A/|BGc2|zBA3/2A/|(GG)|]
For Lyrics: The Wassel Bowl Carrol Go here
To return to the top click here
-----------------------------------------------------------------------------
